resources/icons/16px/binary-number.svg

<svg width="16" height="16" viewBox="0 0 16 16" fill="none" xmlns="http://www.w3.org/2000/svg">
<path fill-rule="evenodd" clip-rule="evenodd" d="M7.004 4.38462C6.65933 4.12821 6.212 4 5.662 4C5.112 4 4.661 4.12821 4.309 4.38462C3.96433 4.6337 3.693 4.95604 3.495 5.35165C3.30433 5.73993 3.17233 6.1685 3.099 6.63736C3.033 7.10623 3 7.56044 3 8C3 8.43956 3.033 8.89377 3.099 9.36264C3.17233 9.8315 3.30433 10.2637 3.495 10.6593C3.693 11.0476 3.96433 11.37 4.309 11.6264C4.661 11.8755 5.112 12 5.662 12C6.212 12 6.65933 11.8755 7.004 11.6264C7.356 11.37 7.62733 11.0476 7.818 10.6593C8.016 10.2637 8.148 9.8315 8.214 9.36264C8.28733 8.89377 8.324 8.43956 8.324 8C8.324 7.56044 8.28733 7.10623 8.214 6.63736C8.148 6.1685 8.016 5.73993 7.818 5.35165C7.62733 4.95604 7.356 4.6337 7.004 4.38462ZM6.344 10.7253C6.16067 10.8791 5.93333 10.956 5.662 10.956C5.38333 10.956 5.15233 10.8791 4.969 10.7253C4.793 10.5641 4.65 10.3516 4.54 10.0879C4.43733 9.81685 4.364 9.50183 4.32 9.14286C4.276 8.78388 4.254 8.40293 4.254 8C4.254 7.59707 4.276 7.21978 4.32 6.86813C4.364 6.50916 4.43733 6.19414 4.54 5.92308C4.65 5.65201 4.793 5.43956 4.969 5.28571C5.15233 5.12454 5.38333 5.04396 5.662 5.04396C5.93333 5.04396 6.16067 5.12454 6.344 5.28571C6.52733 5.43956 6.67033 5.65201 6.773 5.92308C6.883 6.19414 6.96 6.50916 7.004 6.86813C7.048 7.21978 7.07 7.59707 7.07 8C7.07 8.40293 7.048 8.78388 7.004 9.14286C6.96 9.50183 6.883 9.81685 6.773 10.0879C6.67033 10.3516 6.52733 10.5641 6.344 10.7253ZM10.8008 5.25714C10.5415 5.30286 10.2746 5.32571 10 5.32571V6.35429H11.9677V12H13.3977V4H12.3338C12.288 4.24381 12.1889 4.44952 12.0363 4.61714C11.8914 4.78476 11.7122 4.92191 11.4986 5.02857C11.2927 5.13524 11.0601 5.21143 10.8008 5.25714Z" fill="#5F6B7C"/>
</svg>

<svg xmlns="http://www.w3.org/2000/svg" viewBox="0 0 16 16">
  <path d="M7.004 4.385Q6.487 4 5.662 4t-1.353.385q-.517.373-.814.967-.286.582-.396 1.285A10 10 0 0 0 3 8q0 .66.099 1.363.11.703.396 1.296.297.583.814.967.528.375 1.353.374.825 0 1.342-.374.528-.384.814-.967.297-.593.396-1.296.11-.704.11-1.363 0-.66-.11-1.363a4 4 0 0 0-.396-1.285 2.5 2.5 0 0 0-.814-.967m-.66 6.34q-.274.231-.682.231-.418 0-.693-.23a1.8 1.8 0 0 1-.429-.638 4 4 0 0 1-.22-.945A9 9 0 0 1 4.254 8q0-.604.066-1.132.066-.539.22-.945.165-.406.429-.637.274-.242.693-.242.407 0 .682.242.274.23.429.637.165.407.231.945.066.529.066 1.132 0 .605-.066 1.143a3.7 3.7 0 0 1-.231.945 1.6 1.6 0 0 1-.429.637m4.457-5.468q-.39.069-.801.069v1.028h1.968V12h1.43V4h-1.064q-.069.366-.298.617a1.7 1.7 0 0 1-.537.412 2.4 2.4 0 0 1-.698.228"/>
</svg>
